{|name, func,pan,l|
	SynthDef(name, {|gate =0, atk=18, rel=10,amp=1|
	var out;
	out = SynthDef.wrap(func);
		Out.ar(0,Mix.ar(Pan2.ar(out * amp,pan.value)) * EnvGen.ar(Env.asr(atk, 1, rel, 'linear'),gate, doneAction:2))
	}).load(l)
}
